icon/lg/hhvm.svg

<svg width="256" height="382" xmlns="http://www.w3.org/2000/svg" preserveAspectRatio="xMidYMid"><path d="m131.015 127.065 117.088.003-117.088 115.396V127.065" fill="#FFF"/><path d="M.002 257.489h116.672L.002 375.955V257.489M.001 120.581 121.948 1l.061 121.501L.001 244.185V120.581M256.001 132.733v124.388L131.02 381.188V256.832l124.981-124.099ZM255.957 117.869l-117.087-.003L255.957.723v117.146" fill="#878787"/><path d="m121.909 247.908-113.513-.003L121.909 134.32v113.588" fill="#F7852F"/></svg>

<?xml version="1.0" encoding="UTF-8" standalone="no"?>
<svg viewBox="0 0 256 382" version="1.1" xmlns="http://www.w3.org/2000/svg" xmlns:xlink="http://www.w3.org/1999/xlink" preserveAspectRatio="xMidYMid" height="1em" width="1em">
  <g>
    <path d="M131.015,127.065 L248.103,127.068 L131.015,242.464 L131.015,127.065" fill="#FFFFFF"/>
    <path d="M0.002,257.489 L116.674,257.489 L0.002,375.955 L0.002,257.489" fill="#878787"/>
    <path d="M0.001,120.581 L121.948,1 L122.009,122.501 L0.001,244.185 L0.001,120.581" fill="#878787"/>
    <path d="M256.001,132.733 L256.001,257.121 L131.02,381.188 L131.02,256.832 L256.001,132.733 L256.001,132.733 Z" fill="#878787"/>
    <path d="M255.957,117.869 L138.87,117.866 L255.957,0.723 L255.957,117.869" fill="#878787"/>
    <path d="M121.909,247.908 L8.396,247.905 L121.909,134.32 L121.909,247.908" fill="#F7852F"/>
  </g>
</svg>
